; generated by PrusaSlicer 2.4.0 on 2023-07-20 at 18:52:51 UTC

; 

; external perimeters extrusion width = 0.45mm
; perimeters extrusion width = 0.45mm
; infill extrusion width = 0.45mm
; solid infill extrusion width = 0.45mm
; top infill extrusion width = 0.40mm
; first layer extrusion width = 0.42mm

; external perimeters extrusion width = 0.45mm
; perimeters extrusion width = 0.45mm
; infill extrusion width = 0.45mm
; solid infill extrusion width = 0.45mm
; top infill extrusion width = 0.40mm
; first layer extrusion width = 0.42mm

M73 P0 R190
M73 Q0 S192
M201 X1000 Y1000 Z200 E5000 ; sets maximum accelerations, mm/sec^2
M203 X200 Y200 Z12 E120 ; sets maximum feedrates, mm/sec
M204 P1250 R1250 T1250 ; sets acceleration (P, T) and retract acceleration (R), mm/sec^2
M205 X8.00 Y8.00 Z0.40 E4.50 ; sets the jerk limits, mm/sec
M205 S0 T0 ; sets the minimum extruding and travel feed rate, mm/sec
M107
;TYPE:Custom
M862.3 P "MK3S" ; printer model check
M862.1 P0.4 ; nozzle diameter check
M115 U3.10.0 ; tell printer latest fw version
G90 ; use absolute coordinates
M83 ; extruder relative mode
M104 S215 ; set extruder temp
M140 S60 ; set bed temp
M190 S60 ; wait for bed temp
M109 S215 ; wait for extruder temp
G28 W ; home all without mesh bed level
G80 ; mesh bed leveling
G1 Z0.2 F720
G1 Y-3 F1000 ; go outside print area
G92 E0
G1 X60 E9 F1000 ; intro line
G1 X100 E12.5 F1000 ; intro line
G92 E0
M221 S95

; Don't change E values below. Excessive value can damage the printer.
M907 E430 ; set extruder motor current
G21 ; set units to millimeters
G90 ; use absolute coordinates
M83 ; use relative distances for extrusion
M900 K0.05 ; Filament gcode LA 1.5
M900 K30 ; Filament gcode LA 1.0
M107
;LAYER_CHANGE
;Z:0.28
;HEIGHT:0.28
;BEFORE_LAYER_CHANGE
G92 E0.0
;0.28


G1 E-.8 F2100
G1 Z.4 F720
;AFTER_LAYER_CHANGE
;0.28
G1 X58.265 Y69.886 F10800
G1 Z.28 F720
G1 E.8 F2100
M204 S800
;TYPE:Skirt/Brim
;WIDTH:0.42
G1 F1200
G1 X59.103 Y69.345 E.04176
G1 X60.76 Y68.721 E.07422
G1 X61.488 Y68.572 E.03112
G1 X125.758 Y65.73 E2.6954
G1 X172.103 Y65.727 E1.94171
G1 X172.934 Y65.879 E.03542
G1 X174.592 Y66.503 E.07422
G1 X175.43 Y67.043 E.04176
G1 X177.254 Y68.869 E.10814
G1 X177.794 Y69.706 E.04172
G1 X178.417 Y71.363 E.07415
G1 X178.568 Y72.194 E.03539
G1 X178.568 Y145.426 E3.06824
G1 X178.417 Y146.257 E.03539
G1 X177.794 Y147.913 E.07415
G1 X177.254 Y148.75 E.04172
G1 X175.43 Y150.576 E.10814
G1 X174.592 Y151.116 E.04176
G1 X172.934 Y151.741 E.07422
G1 X172.207 Y151.89 E.03112
G1 X107.832 Y154.734 E2.69977
G1 X61.592 Y154.734 E1.93734
G1 X60.76 Y154.583 E.03542
G1 X59.103 Y153.959 E.07422
G1 X58.265 Y153.418 E.04176
G1 X56.441 Y151.593 E.10814
G1 X55.901 Y150.756 E.04172
G1 X55.278 Y149.099 E.07415
G1 X55.127 Y148.268 E.03539
G1 X55.127 Y75.036 E3.06824
G1 X55.278 Y74.205 E.03539
M73 Q0 S191
G1 X55.901 Y72.548 E.07415
G1 X56.441 Y71.711 E.04172
G1 X58.223 Y69.928 E.10562
M204 S1000
;WIPE_START
G1 F8640
G1 X59.103 Y69.345 E-.2437
G1 X60.76 Y68.721 E-.40906
G1 X61.215 Y68.628 E-.10724
;WIPE_END
G1 E-.04 F2100
G1 Z.68 F720
G1 X122.019 Y72.735 F10800
G1 Z.28 F720
G1 E.8 F2100
M204 S800
G1 F1200
G1 X122.198 Y71.674 E.0451
G1 X122.611 Y70.751 E.04238
G1 X123.829 Y69.398 E.07623
G1 X124.493 Y68.888 E.03508
G1 X126.263 Y68.357 E.07745
G1 X127.643 Y68.426 E.05789
G1 X170.317 Y68.426 E1.78792
G1 X171.595 Y68.355 E.05364
G1 X172.668 Y68.54 E.04561
G1 X173.718 Y69.06 E.0491
G1 X175.265 Y70.633 E.0924
G1 X175.4 Y70.819 E.00966
G1 X175.784 Y71.715 E.04082
G1 X175.941 Y72.718 E.04255
G1 X175.87 Y73.98 E.05296
G1 X175.87 Y143.638 E2.91849
G1 X175.948 Y144.838 E.0504
M73 P0 R189
G1 X175.768 Y145.943 E.04691
G1 X175.354 Y146.869 E.04248
G1 X174.137 Y148.221 E.07623
G1 X173.457 Y148.743 E.03592
G1 X171.567 Y149.276 E.08226
G1 X170.315 Y149.194 E.05256
G1 X127.65 Y149.194 E1.78755
G1 X126.451 Y149.272 E.05036
G1 X125.344 Y149.091 E.04697
G1 X124.396 Y148.666 E.04357
G1 X122.703 Y146.989 E.09984
G1 X122.565 Y146.8 E.00977
G1 X122.157 Y145.813 E.04479
G1 X122.02 Y144.788 E.04332
G1 X122.095 Y143.638 E.04827
G1 X122.095 Y73.98 E2.91848
G1 X122.023 Y72.795 E.04975
M204 S1000
G1 X122.382 Y72.773 F10800
M204 S800
G1 F1200
G1 X122.549 Y71.759 E.04308
G1 X122.927 Y70.926 E.03833
G1 X124.083 Y69.653 E.07205
G1 X124.685 Y69.194 E.03168
G1 X126.276 Y68.718 E.06959
G1 X127.634 Y68.785 E.05698
G1 X170.328 Y68.785 E1.78875
G1 X171.557 Y68.714 E.0516
G1 X172.536 Y68.875 E.04155
G1 X173.484 Y69.335 E.04415
G1 X174.998 Y70.874 E.09045
G1 X175.095 Y71.011 E.00703
G1 X175.443 Y71.833 E.03742
G1 X175.582 Y72.752 E.03894
G1 X175.51 Y73.969 E.05107
G1 X175.51 Y143.65 E2.91944
G1 X175.588 Y144.841 E.05
G1 X175.417 Y145.86 E.0433
G1 X175.039 Y146.694 E.03837
G1 X173.882 Y147.967 E.07205
G1 X173.28 Y148.426 E.03175
G1 X171.559 Y148.915 E.07492
G1 X170.327 Y148.834 E.05174
G1 X127.638 Y148.834 E1.78854
G1 X126.448 Y148.912 E.04997
G1 X125.428 Y148.74 E.04335
G1 X124.575 Y148.352 E.03928
G1 X122.968 Y146.746 E.09518
G1 X122.871 Y146.609 E.00707
G1 X122.51 Y145.741 E.03938
G1 X122.381 Y144.793 E.04008
G1 X122.455 Y143.65 E.04799
G1 X122.455 Y73.969 E2.91943
G1 X122.386 Y72.833 E.04769
M204 S1000
G1 X122.745 Y72.811 F10800
M204 S800
G1 F1200
G1 X122.74 Y72.734 E.00322
G1 X122.899 Y71.845 E.03783
G1 X123.241 Y71.103 E.03428
G1 X124.337 Y69.909 E.06789
G1 X124.876 Y69.501 E.02831
G1 X126.289 Y69.079 E.06178
G1 X127.625 Y69.145 E.05607
G1 X170.339 Y69.145 E1.7896
G1 X171.521 Y69.072 E.04963
G1 X172.407 Y69.212 E.03755
G1 X173.25 Y69.611 E.03909
G1 X174.729 Y71.115 E.08838
G1 X174.788 Y71.199 E.00429
G1 X175.102 Y71.95 E.03413
G1 X175.223 Y72.785 E.03533
G1 X175.15 Y73.958 E.04923
G1 X175.15 Y143.661 E2.92041
G1 X175.227 Y144.842 E.04958
G1 X175.066 Y145.774 E.03963
G1 X174.724 Y146.517 E.03426
G1 X173.628 Y147.711 E.06789
G1 X173.09 Y148.119 E.02832
G1 X171.552 Y148.554 E.06693
G1 X170.339 Y148.474 E.05095
G1 X127.627 Y148.474 E1.78952
G1 X126.447 Y148.551 E.04955
G1 X125.514 Y148.39 E.03967
G1 X124.756 Y148.04 E.03497
G1 X123.236 Y146.505 E.09049
G1 X123.178 Y146.421 E.00428
G1 X122.852 Y145.626 E.03602
G1 X122.741 Y144.799 E.03497
G1 X122.815 Y143.661 E.04774
G1 X122.815 Y73.958 E2.92038
G1 X122.749 Y72.871 E.04564
M204 S1000
G1 X123.103 Y72.848 F10800
M204 S800
G1 F1200
G1 X123.099 Y72.776 E.00303
G1 X123.249 Y71.933 E.03588
G1 X123.555 Y71.282 E.03013
G1 X124.589 Y70.166 E.06376
G1 X125.065 Y69.809 E.02491
G1 X126.358 Y69.433 E.05642
G1 X127.614 Y69.505 E.05271
G1 X170.35 Y69.505 E1.79053
G1 X171.523 Y69.433 E.04924
G1 X172.322 Y69.563 E.03392
G1 X173.065 Y69.921 E.03453
G1 X174.458 Y71.352 E.08368
G1 X174.761 Y72.067 E.03254
G1 X174.863 Y72.781 E.03022
G1 X174.79 Y73.947 E.04894
G1 X174.79 Y143.673 E2.92137
G1 X174.867 Y144.844 E.04914
G1 X174.717 Y145.687 E.03588
G1 X174.411 Y146.338 E.03013
G1 X173.376 Y147.454 E.06376
G1 X172.901 Y147.811 E.02491
G1 X171.545 Y148.192 E.05899
G1 X170.35 Y148.114 E.05017
G1 X127.615 Y148.114 E1.79051
G1 X126.445 Y148.191 E.04911
G1 X125.601 Y148.04 E.03592
G1 X124.939 Y147.728 E.03066
G1 X123.507 Y146.268 E.08571
G1 X123.205 Y145.553 E.03251
G1 X123.101 Y144.803 E.03171
G1 X123.175 Y143.673 E.04746
G1 X123.175 Y73.946 E2.92138
G1 X123.107 Y72.908 E.0436
M204 S1000
G1 X123.466 Y72.884 F10800
M204 S800
G1 F1200
G1 X123.459 Y72.775 E.00458
G1 X123.598 Y72.023 E.03206
G1 X123.867 Y71.463 E.02599
G1 X124.84 Y70.424 E.05967
G1 X125.253 Y70.117 E.02156
G1 X126.368 Y69.794 E.04862
G1 X127.604 Y69.865 E.05187
G1 X170.362 Y69.865 E1.79146
G1 X171.489 Y69.791 E.0473
G1 X172.195 Y69.9 E.02995
G1 X172.83 Y70.196 E.02935
G1 X174.164 Y71.566 E.08009
G1 X174.419 Y72.182 E.02796
G1 X174.504 Y72.81 E.02655
G1 X174.43 Y73.934 E.04721
G1 X174.43 Y143.685 E2.92237
G1 X174.506 Y144.844 E.04868
M73 Q0 S190
G1 X174.367 Y145.597 E.03206
G1 X174.099 Y146.156 E.02599
G1 X173.125 Y147.195 E.05967
G1 X172.713 Y147.502 E.02153
G1 X171.538 Y147.831 E.0511
G1 X170.362 Y147.754 E.04938
G1 X127.603 Y147.754 E1.7915
G1 X126.445 Y147.83 E.04864
G1 X125.691 Y147.691 E.03209
G1 X125.125 Y147.419 E.02633
G1 X123.802 Y146.054 E.07963
G1 X123.546 Y145.437 E.02798
G1 X123.462 Y144.809 E.02655
G1 X123.535 Y143.685 E.04721
G1 X123.535 Y73.934 E2.92237
G1 X123.47 Y72.944 E.04158
M204 S1000
G1 X123.829 Y72.921 F10800
M204 S800
G1 F1200
G1 X123.82 Y72.775 E.00611
G1 X123.947 Y72.116 E.02814
G1 X124.177 Y71.648 E.02185
G1 X125.09 Y70.684 E.05562
G1 X125.439 Y70.427 E.01817
G1 X126.434 Y70.149 E.04327
G1 X127.591 Y70.225 E.04861
G1 X170.374 Y70.225 E1.79248
G1 X171.493 Y70.152 E.047
M73 P0 R188
G1 X172.067 Y70.238 E.0243
G1 X172.649 Y70.509 E.02688
G1 X173.846 Y71.738 E.07189
G1 X174.066 Y72.257 E.02364
G1 X174.143 Y72.806 E.02321
G1 X174.07 Y73.923 E.0469
G1 X174.07 Y143.697 E2.92335
G1 X174.145 Y144.844 E.04818
G1 X174.019 Y145.504 E.02814
G1 X173.789 Y145.972 E.02185
G1 X172.876 Y146.936 E.05562
G1 X172.526 Y147.193 E.01817
G1 X171.532 Y147.47 E.04327
G1 X170.374 Y147.394 E.0486
G1 X127.591 Y147.394 E1.79248
G1 X126.445 Y147.469 E.04815
G1 X125.784 Y147.343 E.02817
G1 X125.312 Y147.11 E.02205
G1 X124.12 Y145.882 E.07171
G1 X123.899 Y145.362 E.02366
G1 X123.822 Y144.814 E.02321
G1 X123.895 Y143.697 E.0469
G1 X123.895 Y73.923 E2.92335
G1 X123.833 Y72.981 E.03956
M204 S1000
G1 X124.193 Y72.957 F10800
M204 S800
G1 F1200
G1 X124.181 Y72.776 E.00759
G1 X124.294 Y72.212 E.02411
G1 X124.485 Y71.835 E.0177
G1 X125.338 Y70.945 E.05165
G1 X125.624 Y70.737 E.01482
G1 X126.44 Y70.51 E.0355
G1 X127.58 Y70.585 E.04783
G1 X170.386 Y70.585 E1.79347
G1 X171.496 Y70.512 E.04663
G1 X171.984 Y70.589 E.02067
G1 X172.464 Y70.819 E.02231
G1 X173.53 Y71.912 E.06397
G1 X173.714 Y72.335 E.01932
G1 X173.783 Y72.802 E.01979
G1 X173.711 Y73.911 E.04657
G1 X173.711 Y143.708 E2.92434
G1 X173.785 Y144.843 E.04764
G1 X173.671 Y145.407 E.02411
G1 X173.481 Y145.784 E.0177
G1 X172.628 Y146.674 E.05165
G1 X172.341 Y146.882 E.01482
G1 X171.525 Y147.109 E.0355
G1 X170.386 Y147.034 E.04783
G1 X127.58 Y147.034 E1.79347
G1 X126.446 Y147.109 E.04761
G1 X125.881 Y146.995 E.02413
G1 X125.502 Y146.803 E.01779
G1 X124.436 Y145.708 E.06404
G1 X124.251 Y145.285 E.01934
G1 X124.182 Y144.818 E.01979
G1 X124.255 Y143.708 E.04657
G1 X124.255 Y73.911 E2.92434
G1 X124.196 Y73.017 E.03754
M204 S1000
M73 P1 R188
M73 Q1 S190
G1 X124.556 Y72.994 F10800
M204 S800
G1 F1200
G1 X124.542 Y72.778 E.00903
G1 X124.64 Y72.313 E.01993
G1 X124.79 Y72.027 E.01355
G1 X125.584 Y71.208 E.04777
G1 X125.807 Y71.049 E.01149
G1 X126.447 Y70.872 E.02782
G1 X127.568 Y70.945 E.04706
G1 X170.398 Y70.945 E1.79445
G1 X171.498 Y70.873 E.04623
G1 X171.897 Y70.939 E.01691
G1 X172.276 Y71.127 E.01774
G1 X173.215 Y72.09 E.05635
G1 X173.363 Y72.416 E.01501
G1 X173.423 Y72.799 E.01624
G1 X173.351 Y73.899 E.0462
G1 X173.351 Y143.72 E2.92532
G1 X173.424 Y144.841 E.04706
G1 X173.325 Y145.306 E.01993
G1 X173.175 Y145.593 E.01355
G1 X172.381 Y146.411 E.04776
G1 X172.158 Y146.571 E.01149
G1 X171.518 Y146.748 E.02782
G1 X170.398 Y146.675 E.04706
G1 X127.568 Y146.675 E1.79445
G1 X126.448 Y146.748 E.04702
G1 X125.982 Y146.649 E.01995
G1 X125.695 Y146.498 E.01357
G1 X124.75 Y145.53 E.05669
G1 X124.603 Y145.203 E.01503
G1 X124.543 Y144.82 E.01624
G1 X124.615 Y143.72 E.0462
G1 X124.615 Y73.899 E2.92532
G1 X124.559 Y73.053 E.03551
M204 S1000
G1 X124.919 Y73.03 F10800
M204 S800
G1 F1200
G1 X124.902 Y72.782 E.0104
G1 X124.985 Y72.42 E.01556
G1 X125.093 Y72.223 E.00941
G1 X125.828 Y71.473 E.04402
G1 X125.988 Y71.361 E.00814
G1 X126.454 Y71.233 E.02026
G1 X127.556 Y71.305 E.04629
G1 X170.409 Y71.305 E1.79544
G1 X171.499 Y71.233 E.04576
G1 X171.805 Y71.288 E.01299
G1 X172.085 Y71.432 E.0132
G1 X172.9 Y72.266 E.04888
G1 X173.024 Y72.541 E.01262
G1 X173.062 Y72.794 E.01073
G1 X172.991 Y73.888 E.0459
G1 X172.991 Y143.732 E2.92631
G1 X173.063 Y144.837 E.04641
G1 X172.981 Y145.199 E.01556
G1 X172.873 Y145.396 E.00941
G1 X172.137 Y146.147 E.04402
G1 X171.978 Y146.258 E.00814
G1 X171.512 Y146.387 E.02026
G1 X170.409 Y146.315 E.04629
G1 X127.556 Y146.315 E1.79544
G1 X126.452 Y146.387 E.04637
G1 X126.089 Y146.305 E.01558
G1 X125.893 Y146.197 E.00939
G1 X125.065 Y145.353 E.04951
G1 X124.941 Y145.079 E.01263
G1 X124.903 Y144.825 E.01073
G1 X124.975 Y143.732 E.0459
G1 X124.975 Y73.887 E2.92631
G1 X124.923 Y73.09 E.03349
M204 S1000
G1 X125.282 Y73.066 F10800
M204 S800
G1 F1200
G1 X125.264 Y72.788 E.01167
G1 X125.326 Y72.536 E.01091
G1 X125.39 Y72.426 E.00531
G1 X126.071 Y71.74 E.04049
G1 X126.165 Y71.676 E.00477
G1 X126.46 Y71.594 E.01286
G1 X127.544 Y71.665 E.04552
G1 X170.421 Y71.665 E1.79642
G1 X171.503 Y71.594 E.04543
M73 Q1 S189
G1 X171.665 Y71.621 E.00689
G1 X171.894 Y71.739 E.01078
G1 X172.589 Y72.449 E.04164
G1 X172.674 Y72.628 E.00829
G1 X172.702 Y72.793 E.00701
G1 X172.631 Y73.876 E.04546
G1 X172.631 Y143.744 E2.92729
G1 X172.702 Y144.831 E.04565
G1 X172.639 Y145.084 E.01091
G1 X172.575 Y145.193 E.00531
G1 X171.895 Y145.88 E.04049
G1 X171.801 Y145.944 E.00477
G1 X171.505 Y146.026 E.01285
G1 X170.421 Y145.955 E.04552
G1 X127.544 Y145.955 E1.79642
G1 X126.458 Y146.026 E.04562
G1 X126.205 Y145.963 E.01092
G1 X126.096 Y145.899 E.00528
G1 X125.376 Y145.17 E.04294
G1 X125.291 Y144.992 E.00828
G1 X125.264 Y144.827 E.00701
G1 X125.335 Y143.744 E.04546
G1 X125.335 Y73.876 E2.92729
G1 X125.286 Y73.126 E.03147
M204 S1000
M73 P1 R187
G1 X125.645 Y73.103 F10800
M204 S800
G1 F1200
G1 X125.625 Y72.799 E.01276
G1 X125.679 Y72.64 E.00702
G1 X126.31 Y72.009 E.03737
G1 X126.468 Y71.955 E.00703
G1 X127.533 Y72.025 E.04469
G1 X170.433 Y72.025 E1.79741
G1 X171.509 Y71.954 E.04519
G1 X171.664 Y72.018 E.00703
G1 X172.278 Y72.632 E.03637
G1 X172.341 Y72.787 E.00702
G1 X172.271 Y73.864 E.04522
G1 X172.271 Y143.755 E2.92827
G1 X172.341 Y144.821 E.04472
G1 X172.286 Y144.979 E.00702
G1 X171.63 Y145.627 E.03863
G1 X171.497 Y145.664 E.00578
G1 X170.433 Y145.595 E.04469
G1 X127.533 Y145.595 E1.79741
G1 X126.468 Y145.664 E.04469
G1 X126.31 Y145.61 E.00703
G1 X125.688 Y144.988 E.03687
G1 X125.624 Y144.833 E.00702
G1 X125.694 Y143.755 E.04522
G1 X125.694 Y73.864 E2.92827
G1 X125.649 Y73.163 E.02945
M204 S1000
;WIPE_START
G1 F8640
G1 X125.625 Y72.799 E-.08417
G1 X125.679 Y72.64 E-.03869
G1 X126.31 Y72.009 E-.20594
G1 X126.468 Y71.955 E-.03872
G1 X127.533 Y72.025 E-.24627
G1 X128.166 Y72.025 E-.1462
;WIPE_END
G1 E-.04 F2100
G1 Z.68 F720
G1 X111.639 Y75.359 F10800
G1 Z.28 F720
G1 E.8 F2100
M204 S800
G1 F1200
G1 X111.67 Y75.56 E.00852
G1 X111.6 Y76.822 E.05296
G1 X111.6 Y146.48 E2.91849
G1 X111.678 Y147.68 E.0504
G1 X111.497 Y148.785 E.04691
G1 X111.084 Y149.711 E.04248
G1 X109.866 Y151.063 E.07623
G1 X109.186 Y151.586 E.03592
G1 X107.297 Y152.118 E.08226
G1 X106.045 Y152.036 E.05256
G1 X63.38 Y152.036 E1.78755
G1 X62.18 Y152.115 E.05036
G1 X61.074 Y151.933 E.04697
G1 X60.125 Y151.508 E.04357
G1 X58.432 Y149.831 E.09984
G1 X58.295 Y149.642 E.00977
G1 X57.886 Y148.655 E.04479
G1 X57.75 Y147.63 E.04332
G1 X57.825 Y146.48 E.04827
G1 X57.825 Y76.822 E2.91848
G1 X57.749 Y75.577 E.05226
G1 X57.928 Y74.516 E.0451
G1 X58.341 Y73.593 E.04238
G1 X59.558 Y72.24 E.07623
G1 X60.222 Y71.73 E.03508
G1 X61.993 Y71.199 E.07745
G1 X63.373 Y71.268 E.05789
G1 X106.046 Y71.268 E1.78792
G1 X107.325 Y71.197 E.05364
G1 X108.398 Y71.382 E.04561
G1 X109.448 Y71.902 E.0491
G1 X110.994 Y73.475 E.0924
G1 X111.129 Y73.661 E.00966
G1 X111.513 Y74.557 E.04082
G1 X111.63 Y75.3 E.03151
M204 S1000
G1 X111.275 Y75.354 F10800
M204 S800
G1 F1200
G1 X111.312 Y75.595 E.01021
G1 X111.24 Y76.811 E.05107
G1 X111.24 Y146.492 E2.91944
G1 X111.317 Y147.683 E.05
G1 X111.146 Y148.702 E.0433
G1 X110.768 Y149.536 E.03837
G1 X109.612 Y150.809 E.07205
G1 X109.009 Y151.268 E.03175
G1 X107.289 Y151.757 E.07492
G1 X106.056 Y151.676 E.05174
G1 X63.368 Y151.676 E1.78854
G1 X62.178 Y151.754 E.04997
G1 X61.158 Y151.583 E.04335
G1 X60.304 Y151.194 E.03928
G1 X58.698 Y149.588 E.09518
G1 X58.6 Y149.451 E.00707
G1 X58.239 Y148.583 E.03938
G1 X58.11 Y147.635 E.04008
G1 X58.185 Y146.492 E.04799
G1 X58.185 Y76.812 E2.91943
G1 X58.109 Y75.577 E.05183
G1 X58.278 Y74.601 E.0415
G1 X58.656 Y73.768 E.03833
G1 X59.813 Y72.495 E.07205
G1 X60.414 Y72.036 E.03168
G1 X62.005 Y71.56 E.06959
